X:41
T: Kerek a szőlő levele
O: Bogdánfalva (Bákó), 1929
Q: "Parlando" 1/4=104
L:1/4
K:C
c B A B2 | A ^G F A2 |
c B A B2 | A ^G F D2 |
A ^G F G2 | A ^G F G2 | 
A ^G F G2 | A ^G F D2 | 

